images/egg.svg

<svg fill="none" height="60" viewBox="0 0 60 60" width="60" xmlns="http://www.w3.org/2000/svg" xmlns:xlink="http://www.w3.org/1999/xlink"><clipPath id="a"><path d="m0 0h60v60h-60z"/></clipPath><g clip-path="url(#a)"><path d="m11.7947 10.6425v-5.35307c0-1.01212.8204-1.83289 1.8325-1.83289h18.787c1.0122 0 1.8325.82077 1.8325 1.83289v5.35307l5.6277 6.6605v36.0241c0 1.7556-1.4232 3.1792-3.1791 3.1792h-27.34914c-1.75598 0-3.17917-1.4236-3.17917-3.1792v-36.0241z" fill="#e9e9ea"/><path d="m34.2467 10.6425v-5.35304c0-1.01212-.8203-1.83243-1.8324-1.83243h-3.2872c1.0121 0 1.8324.82031 1.8324 1.83243v5.35304l5.6277 6.6605v36.0242c0 1.7555-1.4236 3.1792-3.1791 3.1792h3.2872c1.7555 0 3.1792-1.4237 3.1792-3.1792v-36.0242z" fill="#c5c4cc"/><path d="m36.6953 56.5059h-27.34914c-1.75598 0-3.17917-1.4232-3.17917-3.1792v-36.0237h33.70741v36.0241c0 1.7556-1.4232 3.1788-3.1791 3.1788z" fill="#8cbafa"/><path d="m39.8745 17.303h-3.2873v36.0241c0 1.7556-1.4236 3.1792-3.1791 3.1792h3.2872c1.7555 0 3.1792-1.4236 3.1792-3.1792z" fill="#5692d8"/><path d="m32.4142 3.45703h-18.7871c-1.0121 0-1.8324.82031-1.8324 1.83243v5.35304h22.4519v-5.35304c0-1.01212-.8203-1.83243-1.8324-1.83243z" fill="#8cbafa"/><path d="m34.2467 10.6425v-5.35307c0-1.01212-.8203-1.83289-1.8324-1.83289h-3.2872c1.0121.00046 1.8324.82077 1.8324 1.83243v5.35353z" fill="#5692d8"/><path d="m42.4018 46.7453c0-3.4465-2.2962-6.2407-5.1288-6.2407-2.8322 0-5.1283 2.7942-5.1283 6.2407 0 3.447 2.2961 6.2407 5.1283 6.2407 2.8326 0 5.1288-2.7937 5.1288-6.2407z" fill="#ffd2c0"/><path d="m55.1358 46.7453c0-3.4465-2.2962-6.2407-5.1284-6.2407-2.8326 0-5.1287 2.7942-5.1287 6.2407 0 3.447 2.2961 6.2407 5.1287 6.2407 2.8322 0 5.1284-2.7937 5.1284-6.2407z" fill="#ffd2c0"/><path d="m50.0074 40.5046c-.2774 0-.5497.0275-.8148.0792 1.7748.4752 3.1307 3.0524 3.1307 6.1615 0 3.1092-1.3559 5.6864-3.1307 6.1615.2651.0513.5374.0792.8148.0792 2.8322 0 5.1284-2.7942 5.1284-6.2407s-2.2962-6.2407-5.1284-6.2407z" fill="#edaa9d"/><path d="m37.2729 40.5046c-.2774 0-.5493.0275-.8148.0792 1.7748.4752 3.1311 3.0524 3.1311 6.1615 0 3.1092-1.3563 5.6864-3.1311 6.1615.2655.0513.5374.0792.8148.0792 2.8327 0 5.1288-2.7942 5.1288-6.2407s-2.2961-6.2407-5.1288-6.2407z" fill="#edaa9d"/><path d="m44.333 47.3835h-14.1197l2.3629 8.4916c.1035.373.4436.6312.8309.6312h7.7321c.3872 0 .7269-.2582.8308-.6312l1.0291-3.6983c.0379-.1369.1629-.2321.3053-.2321h.6711c.1423 0 .2673.0952.3057.2321l1.0291 3.6983c.1035.373.4436.6312.8308.6312h7.7321c.3873 0 .727-.2582.8309-.6312l2.3629-8.4916z" fill="#f9aa4b"/><path d="m54.1374 47.3835-2.363 8.4911c-.1039.3731-.4435.6313-.8308.6313h2.9297c.3873 0 .7269-.2582.8308-.6313l2.363-8.4911z" fill="#c1762b"/><path d="m22.2079 50.4684c0-1.398 1.0689-2.546 2.434-2.6719.141-.0128.249-.1291.249-.2706v-2.839c0-.1351-.0966-.255-.2307-.2733-.8304-.1126-1.4704-.8244-1.4704-1.6855 0-.8615.64-1.5733 1.4704-1.6859.1341-.0179.2307-.1378.2307-.2733v-1.3513c0-.6143-.4976-1.1119-1.1115-1.1119h-19.61146c-1.81641 0-3.289034 1.4726-3.289034 3.289v11.6222c0 1.8164 1.472624 3.289 3.289034 3.289h19.61146c.6139 0 1.112-.4976 1.112-1.1115v-1.9839c0-.1415-.1085-.2573-.2495-.2701-1.3651-.1259-2.434-1.2739-2.434-2.672z" fill="#ffeb96"/><path d="m4.69528 53.2173v-11.6226c0-1.8164 1.47263-3.289 3.28903-3.289h-3.81637c-1.81641 0-3.289034 1.4726-3.289034 3.289v11.6226c0 1.8164 1.472624 3.289 3.289034 3.289h3.81637c-1.8164-.0004-3.28903-1.4726-3.28903-3.289z" fill="#f9aa4b"/><path d="m11.575 42.8292c0 .8341-.6761 1.5102-1.5102 1.5102-.83403 0-1.5106-.6761-1.5106-1.5102 0-.8345.67657-1.5106 1.5106-1.5106.8341 0 1.5102.6761 1.5102 1.5106z" fill="#ffcd34"/><path d="m18.5005 50.2648c0 1.3705-1.111 2.4811-2.4811 2.4811s-2.4811-1.1106-2.4811-2.4811c0-1.3701 1.111-2.4806 2.4811-2.4806s2.4811 1.1105 2.4811 2.4806z" fill="#ffcd34"/><path d="m14.5546 30.3991c5.6492-.1249 11.2985 5.8663 16.9482 5.707.379-.0105.6793-.3246.6793-.7036v-6.1601c0-.3974-.3291-.7109-.7269-.7018-5.6493.125-11.2985-5.8662-16.9482-5.7069-.3791.0105-.6794.3245-.6794.7036v6.1596c0 .3978.3292.7114.727.7022z" fill="#e9e9ea"/><g fill="#5b5b5b"><path d="m59.1211 46.5042h-3.1101c-.1075-3.8145-2.7594-6.8783-6.0035-6.8783-3.2451 0-5.8974 3.0638-6.005 6.8783h-.7251c-.0645-2.2906-1.0469-4.3107-2.5241-5.5591v-23.6242c0-.006 0-.0119 0-.0183 0-.2221-.0824-.4253-.2188-.58l-5.4089-6.4014v-5.03266c0-1.49459-1.2163-2.71042-2.7118-2.71042h-18.7862c-1.495 0-2.7118 1.21583-2.7118 2.71042v5.03266l-5.4208 6.4142c-.13413.1588-.20737.3598-.20737.5672v4.1532c0 .4853.39322.8789.8789.8789.48523 0 .87891-.3936.87891-.8789v-3.2743h31.95006v21.7424c-.5461-.1941-1.1243-.298-1.723-.298-3.2442 0-5.896 3.0638-6.0036 6.8783h-3.1096c-.4857 0-.8789.3932-.8789.8789s.3932.8789.8789.8789h1.3861l2.0494 7.3645h-5.8383c.0087-.0764.0133-.1538.0133-.2325v-1.9835c0-.5983-.4504-1.0909-1.0474-1.1458-.9324-.0856-1.6355-.8583-1.6355-1.7967s.7031-1.7107 1.636-1.7967c.5969-.055 1.0474-.5475 1.0474-1.1454v-2.839c0-.5759-.4267-1.0675-.992-1.1444-.4042-.055-.7095-.4051-.7095-.8148s.3053-.7599.7099-.8149c.5649-.0764.9916-.5685.9916-1.1444v-1.3513c0-1.0977-.8931-1.9908-1.9909-1.9908h-16.73396v-12.4548c0-.4857-.39368-.8789-.87891-.8789-.48568 0-.8789.3932-.8789.8789v12.4548h-1.11969c-.1799 0-.3566.0114-.53009.0339-2.04895.2609-3.63785 2.0155-3.63785 4.134v11.6227c0 2.1189 1.5889 3.8731 3.63785 4.1345.17349.022.35019.0334.53009.0334h19.61146c.0138 0 .0275 0 .0412-.0005h9.5476c.0133.0005.0261.0005.0389.0005h7.7321c.7787 0 1.4685-.5241 1.6777-1.2744l.8231-2.959.8235 2.959c.2092.7503.899 1.2744 1.6777 1.2744h7.7321c.7786 0 1.469-.5241 1.6777-1.2744l2.184-7.8484h1.3861c.4857 0 .8789-.3932.8789-.8789 0-.4852-.3932-.8789-.8789-.8789zm-21.14-30.0801h-29.92126l4.14366-4.9026h21.6348zm-24.3535-12.08816h18.7866c.526 0 .954.42755.954.9526v4.4751h-20.6946v-4.4751c0-.52505.4281-.9526.954-.9526zm36.3799 37.04776c2.2792 0 4.1446 2.2755 4.2448 5.1205h-8.491c.1002-2.845 1.9665-5.1205 4.2462-5.1205zm-12.735 0c.7397 0 1.436.2394 2.0421.6601.0316.0261.0641.0494.0989.0709 1.2094.8931 2.0393 2.5182 2.1052 4.3895h-8.4911c.1003-2.845 1.9657-5.1205 4.2449-5.1205zm-33.10456 14.2433c-1.32889 0-2.41013-1.0813-2.41013-2.4101v-11.6227c0-1.3288 1.08124-2.4096 2.41013-2.4096h.41748c-.48432.6807-.76904 1.5124-.76904 2.4096v2.0691c0 .4853.39367.8789.8789.8789.48569 0 .87891-.3936.87891-.8789v-2.0691c0-1.3288 1.08124-2.4096 2.41012-2.4096h15.79509c.1282 0 .2326.1043.2326.2325v.8849c-.9988.3634-1.7011 1.3266-1.7011 2.4257 0 1.0995.7018 2.0626 1.7011 2.4261v1.8608c-1.5628.3909-2.683 1.7903-2.683 3.4534 0 1.6635 1.1202 3.0629 2.683 3.4543v1.4721c0 .1236-.0966.2248-.2188.2321h-.0138c-.0091 0-.0183 0-.027.0005h-15.76809c-1.32888 0-2.41012-1.0813-2.41012-2.4101v-6.0379c0-.4857-.39322-.879-.87891-.879-.48523 0-.8789.3933-.8789.879v6.0379c0 .8976.28518 1.7294.7695 2.4101zm49.69296 0h-7.7073l-1.0254-3.6855c-.1433-.5154-.6175-.8757-1.1527-.8757h-.6711c-.5351 0-1.0089.3598-1.1521.8753l-1.0259 3.6859h-4.4046c-.0087 0-.0179-.0005-.027-.0005h-3.2753l-2.0494-7.3645h.7768c.0156.0005.0321.0005.0481 0h10.1578c.0077.0005.0155.0005.0233.0005s.0156 0 .0238-.0005h2.4806c.0156.0005.0321.0005.0481 0h10.1578c.0077.0005.0155.0005.0233.0005s.0156 0 .0238-.0005h.7768z"/><path d="m10.0648 45.2183c1.3175 0 2.3895-1.0716 2.3895-2.3895 0-1.3175-1.072-2.3891-2.3895-2.3891-1.31742 0-2.38951 1.0716-2.38951 2.3891 0 1.3174 1.07209 2.3895 2.38951 2.3895zm0-3.0208c.3484 0 .6317.2834.6317.6313 0 .3483-.2833.6317-.6317.6317-.34834 0-.63169-.2834-.63169-.6317 0-.3479.28335-.6313.63169-.6313z"/><path d="m16.0194 53.6248c1.853 0 3.36-1.5075 3.36-3.36 0-1.8526-1.507-3.36-3.36-3.36-1.8526 0-3.36 1.5074-3.36 3.36 0 1.8525 1.5074 3.36 3.36 3.36zm0-4.9622c.8835 0 1.6022.7187 1.6022 1.6022s-.7187 1.6021-1.6022 1.6021-1.6022-.7186-1.6022-1.6021.7187-1.6022 1.6022-1.6022z"/><path d="m14.5738 31.278c2.5951-.0567 5.2322 1.3088 8.0269 2.7558 2.807 1.4529 5.7069 2.9544 8.681 2.9544.0819 0 .1639-.0014.2458-.0037.8597-.0243 1.5335-.7191 1.5335-1.582v-6.1602c0-.4275-.1684-.828-.4742-1.1274-.3085-.3017-.7155-.4674-1.1508-.4532-2.5919.0554-5.2323-1.3092-8.0269-2.7558-2.8844-1.4932-5.8685-3.0381-8.9269-2.9507-.8601.0243-1.5335.7192-1.5335 1.582v6.1597c0 .428.1685.8286.4743 1.1279.309.3017.7155.4619 1.1508.4532zm.1327-7.5686h.0261c2.5411 0 5.1311 1.3403 7.8681 2.7575 2.807 1.453 5.7069 2.9544 8.6805 2.9544h.022v5.8086c-.0087.0005-.0174.0005-.0261.0005-2.541 0-5.1306-1.3408-7.868-2.7576-2.807-1.4534-5.707-2.9544-8.6806-2.9544h-.022z"/></g></g></svg>

<svg width="60" height="60" viewBox="0 0 60 60" fill="none" xmlns="http://www.w3.org/2000/svg">
<g clip-path="url(#clip0_2082_238)">
<path d="M11.7947 10.6425V5.28943C11.7947 4.27731 12.6151 3.45654 13.6272 3.45654H32.4142C33.4264 3.45654 34.2467 4.27731 34.2467 5.28943V10.6425L39.8744 17.303V53.3271C39.8744 55.0827 38.4512 56.5063 36.6953 56.5063H9.34616C7.59018 56.5063 6.16699 55.0827 6.16699 53.3271V17.303L11.7947 10.6425Z" fill="#E9E9EA"/>
<path d="M34.2467 10.6425V5.28946C34.2467 4.27734 33.4264 3.45703 32.4143 3.45703H29.1271C30.1392 3.45703 30.9595 4.27734 30.9595 5.28946V10.6425L36.5872 17.303V53.3272C36.5872 55.0827 35.1636 56.5064 33.4081 56.5064H36.6953C38.4508 56.5064 39.8745 55.0827 39.8745 53.3272V17.303L34.2467 10.6425Z" fill="#C5C4CC"/>
<path d="M36.6953 56.5059H9.34616C7.59018 56.5059 6.16699 55.0827 6.16699 53.3267V17.303H39.8744V53.3271C39.8744 55.0827 38.4512 56.5059 36.6953 56.5059Z" fill="#8CBAFA"/>
<path d="M39.8745 17.303H36.5872V53.3271C36.5872 55.0827 35.1636 56.5063 33.4081 56.5063H36.6953C38.4508 56.5063 39.8745 55.0827 39.8745 53.3271V17.303Z" fill="#5692D8"/>
<path d="M32.4142 3.45703H13.6271C12.615 3.45703 11.7947 4.27734 11.7947 5.28946V10.6425H34.2466V5.28946C34.2466 4.27734 33.4263 3.45703 32.4142 3.45703Z" fill="#8CBAFA"/>
<path d="M34.2467 10.6425V5.28943C34.2467 4.27731 33.4264 3.45654 32.4143 3.45654H29.1271C30.1392 3.457 30.9595 4.27731 30.9595 5.28897V10.6425H34.2467Z" fill="#5692D8"/>
<path d="M42.4018 46.7453C42.4018 43.2988 40.1056 40.5046 37.273 40.5046C34.4408 40.5046 32.1447 43.2988 32.1447 46.7453C32.1447 50.1923 34.4408 52.986 37.273 52.986C40.1056 52.986 42.4018 50.1923 42.4018 46.7453Z" fill="#FFD2C0"/>
<path d="M55.1358 46.7453C55.1358 43.2988 52.8396 40.5046 50.0074 40.5046C47.1748 40.5046 44.8787 43.2988 44.8787 46.7453C44.8787 50.1923 47.1748 52.986 50.0074 52.986C52.8396 52.986 55.1358 50.1923 55.1358 46.7453Z" fill="#FFD2C0"/>
<path d="M50.0074 40.5046C49.73 40.5046 49.4577 40.5321 49.1926 40.5838C50.9674 41.059 52.3233 43.6362 52.3233 46.7453C52.3233 49.8545 50.9674 52.4317 49.1926 52.9068C49.4577 52.9581 49.73 52.986 50.0074 52.986C52.8396 52.986 55.1358 50.1918 55.1358 46.7453C55.1358 43.2988 52.8396 40.5046 50.0074 40.5046Z" fill="#EDAA9D"/>
<path d="M37.2729 40.5046C36.9955 40.5046 36.7236 40.5321 36.4581 40.5838C38.2329 41.059 39.5892 43.6362 39.5892 46.7453C39.5892 49.8545 38.2329 52.4317 36.4581 52.9068C36.7236 52.9581 36.9955 52.986 37.2729 52.986C40.1056 52.986 42.4017 50.1918 42.4017 46.7453C42.4017 43.2988 40.1056 40.5046 37.2729 40.5046Z" fill="#EDAA9D"/>
<path d="M44.333 47.3835H30.2133L32.5762 55.8751C32.6797 56.2481 33.0198 56.5063 33.4071 56.5063H41.1392C41.5264 56.5063 41.8661 56.2481 41.97 55.8751L42.9991 52.1768C43.037 52.0399 43.162 51.9447 43.3044 51.9447H43.9755C44.1178 51.9447 44.2428 52.0399 44.2812 52.1768L45.3103 55.8751C45.4138 56.2481 45.7539 56.5063 46.1411 56.5063H53.8732C54.2605 56.5063 54.6002 56.2481 54.7041 55.8751L57.067 47.3835H44.333Z" fill="#F9AA4B"/>
<path d="M54.1374 47.3835L51.7744 55.8746C51.6705 56.2477 51.3309 56.5059 50.9436 56.5059H53.8733C54.2606 56.5059 54.6002 56.2477 54.7041 55.8746L57.0671 47.3835H54.1374Z" fill="#C1762B"/>
<path d="M22.2079 50.4684C22.2079 49.0704 23.2768 47.9224 24.6419 47.7965C24.7829 47.7837 24.8909 47.6674 24.8909 47.5259V44.6869C24.8909 44.5518 24.7943 44.4319 24.6602 44.4136C23.8298 44.301 23.1898 43.5892 23.1898 42.7281C23.1898 41.8666 23.8298 41.1548 24.6602 41.0422C24.7943 41.0243 24.8909 40.9044 24.8909 40.7689V39.4176C24.8909 38.8033 24.3933 38.3057 23.7794 38.3057H4.16794C2.35153 38.3057 0.878906 39.7783 0.878906 41.5947V53.2169C0.878906 55.0333 2.35153 56.5059 4.16794 56.5059H23.7794C24.3933 56.5059 24.8914 56.0083 24.8914 55.3944V53.4105C24.8914 53.269 24.7829 53.1532 24.6419 53.1404C23.2768 53.0145 22.2079 51.8665 22.2079 50.4684Z" fill="#FFEB96"/>
<path d="M4.69528 53.2173V41.5947C4.69528 39.7783 6.16791 38.3057 7.98431 38.3057H4.16794C2.35153 38.3057 0.878906 39.7783 0.878906 41.5947V53.2173C0.878906 55.0337 2.35153 56.5063 4.16794 56.5063H7.98431C6.16791 56.5059 4.69528 55.0337 4.69528 53.2173Z" fill="#F9AA4B"/>
<path d="M11.575 42.8292C11.575 43.6633 10.8989 44.3394 10.0648 44.3394C9.23077 44.3394 8.5542 43.6633 8.5542 42.8292C8.5542 41.9947 9.23077 41.3186 10.0648 41.3186C10.8989 41.3186 11.575 41.9947 11.575 42.8292Z" fill="#FFCD34"/>
<path d="M18.5005 50.2648C18.5005 51.6353 17.3895 52.7459 16.0194 52.7459C14.6493 52.7459 13.5383 51.6353 13.5383 50.2648C13.5383 48.8947 14.6493 47.7842 16.0194 47.7842C17.3895 47.7842 18.5005 48.8947 18.5005 50.2648Z" fill="#FFCD34"/>
<path d="M14.5546 30.3991C20.2038 30.2742 25.8531 36.2654 31.5028 36.1061C31.8818 36.0956 32.1821 35.7815 32.1821 35.4025V29.2424C32.1821 28.845 31.853 28.5315 31.4552 28.5406C25.8059 28.6656 20.1567 22.6744 14.507 22.8337C14.1279 22.8442 13.8276 23.1582 13.8276 23.5373V29.6969C13.8276 30.0947 14.1568 30.4083 14.5546 30.3991Z" fill="#E9E9EA"/>
<path d="M59.1211 46.5042H56.011C55.9035 42.6897 53.2516 39.6259 50.0075 39.6259C46.7624 39.6259 44.1101 42.6897 44.0025 46.5042H43.2774C43.2129 44.2136 42.2305 42.1935 40.7533 40.9451V17.3209C40.7533 17.3149 40.7533 17.309 40.7533 17.3026C40.7533 17.0805 40.6709 16.8773 40.5345 16.7226L35.1256 10.3212V5.28854C35.1256 3.79395 33.9093 2.57812 32.4138 2.57812H13.6276C12.1326 2.57812 10.9158 3.79395 10.9158 5.28854V10.3212L5.495 16.7354C5.36087 16.8942 5.28763 17.0952 5.28763 17.3026V21.4558C5.28763 21.9411 5.68085 22.3347 6.16653 22.3347C6.65176 22.3347 7.04544 21.9411 7.04544 21.4558V18.1815H38.9955V39.9239C38.4494 39.7298 37.8712 39.6259 37.2725 39.6259C34.0283 39.6259 31.3765 42.6897 31.2689 46.5042H28.1593C27.6736 46.5042 27.2804 46.8974 27.2804 47.3831C27.2804 47.8688 27.6736 48.262 28.1593 48.262H29.5454L31.5948 55.6265H25.7565C25.7652 55.5501 25.7698 55.4727 25.7698 55.394V53.4105C25.7698 52.8122 25.3194 52.3196 24.7224 52.2647C23.79 52.1791 23.0869 51.4064 23.0869 50.468C23.0869 49.5296 23.79 48.7573 24.7229 48.6713C25.3198 48.6163 25.7703 48.1238 25.7703 47.5259V44.6869C25.7703 44.111 25.3436 43.6194 24.7783 43.5425C24.3741 43.4875 24.0688 43.1374 24.0688 42.7277C24.0688 42.318 24.3741 41.9678 24.7787 41.9128C25.3436 41.8364 25.7703 41.3443 25.7703 40.7684V39.4171C25.7703 38.3194 24.8772 37.4263 23.7794 37.4263H7.04544V24.9715C7.04544 24.4858 6.65176 24.0926 6.16653 24.0926C5.68085 24.0926 5.28763 24.4858 5.28763 24.9715V37.4263H4.16794C3.98804 37.4263 3.81134 37.4377 3.63785 37.4602C1.5889 37.7211 0 39.4757 0 41.5942V53.2169C0 55.3358 1.5889 57.09 3.63785 57.3514C3.81134 57.3734 3.98804 57.3848 4.16794 57.3848H23.7794C23.7932 57.3848 23.8069 57.3848 23.8206 57.3843H33.3682C33.3815 57.3848 33.3943 57.3848 33.4071 57.3848H41.1392C41.9179 57.3848 42.6077 56.8607 42.8169 56.1104L43.64 53.1514L44.4635 56.1104C44.6727 56.8607 45.3625 57.3848 46.1412 57.3848H53.8733C54.6519 57.3848 55.3423 56.8607 55.551 56.1104L57.735 48.262H59.1211C59.6068 48.262 60 47.8688 60 47.3831C60 46.8979 59.6068 46.5042 59.1211 46.5042ZM37.9811 16.4241H8.05984L12.2035 11.5215H33.8383L37.9811 16.4241ZM13.6276 4.33594H32.4142C32.9402 4.33594 33.3682 4.76349 33.3682 5.28854V9.76364H12.6736V5.28854C12.6736 4.76349 13.1017 4.33594 13.6276 4.33594ZM50.0075 41.3837C52.2867 41.3837 54.1521 43.6592 54.2523 46.5042H45.7613C45.8615 43.6592 47.7278 41.3837 50.0075 41.3837ZM37.2725 41.3837C38.0122 41.3837 38.7085 41.6231 39.3146 42.0438C39.3462 42.0699 39.3787 42.0932 39.4135 42.1147C40.6229 43.0078 41.4528 44.6329 41.5187 46.5042H33.0276C33.1279 43.6592 34.9933 41.3837 37.2725 41.3837ZM4.16794 55.627C2.83905 55.627 1.75781 54.5457 1.75781 53.2169V41.5942C1.75781 40.2654 2.83905 39.1846 4.16794 39.1846H4.58542C4.1011 39.8653 3.81638 40.697 3.81638 41.5942V43.6633C3.81638 44.1486 4.21005 44.5422 4.69528 44.5422C5.18097 44.5422 5.57419 44.1486 5.57419 43.6633V41.5942C5.57419 40.2654 6.65543 39.1846 7.98431 39.1846H23.7794C23.9076 39.1846 24.012 39.2889 24.012 39.4171V40.302C23.0132 40.6654 22.3109 41.6286 22.3109 42.7277C22.3109 43.8272 23.0127 44.7903 24.012 45.1538V47.0146C22.4492 47.4055 21.329 48.8049 21.329 50.468C21.329 52.1315 22.4492 53.5309 24.012 53.9223V55.3944C24.012 55.518 23.9154 55.6192 23.7932 55.6265H23.7794C23.7703 55.6265 23.7611 55.6265 23.7524 55.627H7.98431C6.65543 55.627 5.57419 54.5457 5.57419 53.2169V47.179C5.57419 46.6933 5.18097 46.3 4.69528 46.3C4.21005 46.3 3.81638 46.6933 3.81638 47.179V53.2169C3.81638 54.1145 4.10156 54.9463 4.58588 55.627H4.16794ZM53.8609 55.627H46.1536L45.1282 51.9415C44.9849 51.4261 44.5107 51.0658 43.9755 51.0658H43.3044C42.7693 51.0658 42.2955 51.4256 42.1523 51.9411L41.1264 55.627H36.7218C36.7131 55.627 36.7039 55.6265 36.6948 55.6265H33.4195L31.3701 48.262H32.1469C32.1625 48.2625 32.179 48.2625 32.195 48.262H42.3528C42.3605 48.2625 42.3683 48.2625 42.3761 48.2625C42.3839 48.2625 42.3917 48.2625 42.3999 48.262H44.8805C44.8961 48.2625 44.9126 48.2625 44.9286 48.262H55.0864C55.0941 48.2625 55.1019 48.2625 55.1097 48.2625C55.1175 48.2625 55.1253 48.2625 55.1335 48.262H55.9103L53.8609 55.627Z" fill="#5B5B5B"/>
<path d="M10.0648 45.2183C11.3823 45.2183 12.4543 44.1467 12.4543 42.8288C12.4543 41.5113 11.3823 40.4397 10.0648 40.4397C8.74738 40.4397 7.67529 41.5113 7.67529 42.8288C7.67529 44.1462 8.74738 45.2183 10.0648 45.2183ZM10.0648 42.1975C10.4132 42.1975 10.6965 42.4809 10.6965 42.8288C10.6965 43.1771 10.4132 43.4605 10.0648 43.4605C9.71646 43.4605 9.43311 43.1771 9.43311 42.8288C9.43311 42.4809 9.71646 42.1975 10.0648 42.1975Z" fill="#5B5B5B"/>
<path d="M16.0194 53.6248C17.8724 53.6248 19.3794 52.1173 19.3794 50.2648C19.3794 48.4122 17.8724 46.9048 16.0194 46.9048C14.1668 46.9048 12.6594 48.4122 12.6594 50.2648C12.6594 52.1173 14.1668 53.6248 16.0194 53.6248ZM16.0194 48.6626C16.9029 48.6626 17.6216 49.3813 17.6216 50.2648C17.6216 51.1483 16.9029 51.8669 16.0194 51.8669C15.1359 51.8669 14.4172 51.1483 14.4172 50.2648C14.4172 49.3813 15.1359 48.6626 16.0194 48.6626Z" fill="#5B5B5B"/>
<path d="M14.5738 31.278C17.1689 31.2213 19.806 32.5868 22.6007 34.0338C25.4077 35.4867 28.3076 36.9882 31.2817 36.9882C31.3636 36.9882 31.4456 36.9868 31.5275 36.9845C32.3872 36.9602 33.061 36.2654 33.061 35.4025V29.2423C33.061 28.8148 32.8926 28.4143 32.5868 28.1149C32.2783 27.8132 31.8713 27.6475 31.436 27.6617C28.8441 27.7171 26.2037 26.3525 23.4091 24.9059C20.5247 23.4127 17.5406 21.8678 14.4822 21.9552C13.6221 21.9795 12.9487 22.6744 12.9487 23.5372V29.6969C12.9487 30.1249 13.1172 30.5255 13.423 30.8248C13.732 31.1265 14.1385 31.2867 14.5738 31.278ZM14.7065 23.7094H14.7326C17.2737 23.7094 19.8637 25.0497 22.6007 26.4669C25.4077 27.9199 28.3076 29.4213 31.2812 29.4213H31.3032V35.2299C31.2945 35.2304 31.2858 35.2304 31.2771 35.2304C28.7361 35.2304 26.1465 33.8896 23.4091 32.4728C20.6021 31.0194 17.7021 29.5184 14.7285 29.5184H14.7065V23.7094Z" fill="#5B5B5B"/>
</g>
<defs>
<clipPath id="clip0_2082_238">
<rect width="60" height="60" fill="white"/>
</clipPath>
</defs>
</svg>
